X: 1
T: Reel des Oignons
M: C|
Z: Transcribed to abc by Mary Lou Knack
R: reel
K: G
   z2 | "G"gage d2"E7"Bd | (3"Am"cdc A2 A4 |1,3 "D"feee eddd | dccc c2B2 :|2,4 "D"D2fe dcBA | "G"G2g2 g2 :|
|: Bc | "G"d2g2 g2fg | "Am"a6 (3ABc |1,3 "D"d2a2 a2ga | "G"b6 :|2,4 "D"d2a2 a2ba | "G"g6 :|
